src/assets/img/svg_sources/icon-service-frontend.svg

<svg width="42" height="42" viewBox="0 0 42 42" fill="none" xmlns="http://www.w3.org/2000/svg">
<path d="M28.4999 17L30.367 17.7005L27.5001 25L25.6329 24.2995L28.4999 17Z" fill="#C7A21E"/>
<path d="M34 18.068H32L34 21L32 23.9321H34L36 21L34 18.068Z" fill="#C7A21E"/>
<path d="M22 18.068H24L22 21L24 23.9321H22L20 21L22 18.068Z" fill="#C7A21E"/>
<path d="M5 5H11V7H5V5Z" fill="#C7A21E"/>
<path d="M11 9H5V11H11V9Z" fill="#C7A21E"/>
<path d="M5 13H11V15H5V13Z" fill="#C7A21E"/>
<path d="M11 17H5V19H11V17Z" fill="#C7A21E"/>
<path d="M5 21H11V23H5V21Z" fill="#C7A21E"/>
<path d="M11 25H5V27H11V25Z" fill="#C7A21E"/>
<path fill-rule="evenodd" clip-rule="evenodd" d="M40 0C41.1046 0 42 0.895431 42 2V40C42 41.1046 41.1046 42 40 42H2C0.895431 42 0 41.1046 0 40V2C0 0.89543 0.895431 0 2 0H40ZM16 2H40V40H16V2ZM14 40H2V2H14V40Z" fill="#C7A21E"/>
</svg>

<svg width="42" height="42" viewBox="0 0 42 42" fill="none" xmlns="http://www.w3.org/2000/svg"><path d="M28.5 17l1.867.7L27.5 25l-1.867-.7L28.5 17zm5.5 1.068h-2L34 21l-2 2.932h2L36 21l-2-2.932zm-12 0h2L22 21l2 2.932h-2L20 21l2-2.932zM5 5h6v2H5V5zm6 4H5v2h6V9zm-6 4h6v2H5v-2zm6 4H5v2h6v-2zm-6 4h6v2H5v-2zm6 4H5v2h6v-2z" fill="#C7A21E"/><path fill-rule="evenodd" clip-rule="evenodd" d="M40 0a2 2 0 0 1 2 2v38a2 2 0 0 1-2 2H2a2 2 0 0 1-2-2V2a2 2 0 0 1 2-2h38zM16 2h24v38H16V2zm-2 38H2V2h12v38z" fill="#C7A21E"/></svg>
